X: 52
T: Pucellotte que dieu vous gart
N: Derived from Bus3048-Pucellotte_que_dieu_vous_gart.krn
C: Antoine Busnoys
%%abc-version 2.0
%%abcx-abcm2ps-target-version 5.9.1 (29 Sep 2008)
%%abc-creator hum2abc beta
%%abcx-conversion-date 2019/02/16 20:26:07
%%abc-edited-by Jesse Rodin
%%abc-edited-by Chris Gage 04-13-2015
%%abcx-initial-encoding-date 2015/05/12/
%%humdrum-veritas 3026764218
%%humdrum-veritas-data 3229367309
%%linebreak <none>
%%barnumbers 0
L: 1/4
M: 2/1
Q: 1/2=120
V: 1 clef=treble
V: 2 clef=treble-8
V: 3 clef=bass
K: C
[V:1] D4D2D2 | 
[V:2] z8 | 
[V:3] z8 | 
[V:1] G6G2 | 
[V:2] G4G2G2 | 
[V:3] z8 | 
[V:1] A2GFE2E2 | 
[V:2] c6c2 | 
[V:3] z8 | 
[V:1] D2G3^FFE | 
[V:2] d2c_BA2A2 | 
[V:3] D,4D,2D,2 | 
[V:1] G4B4 | 
[V:2] G2d4e2 | 
[V:3] G,6G,2 | 
[V:1] A2c3BAG | 
[V:2] f2ed^c4 | 
[V:3] A,2G,F,E,2E,2 | 
[V:1] F4z4 | 
[V:2] d4d2d2 | 
[V:3] D,8 | 
[V:1] A4A2A2 | 
[V:2] f6f2 | 
[V:3] z4D,4 | 
[V:1] c6c2 | 
[V:2] e2f2g2e2 | 
[V:3] A,8 | 
[V:1] B2c2d2B2 | 
[V:2] d8 | 
[V:3] G,2A,2_B,3G, | 
[V:1] A4G4 :|]|:  
[V:2] c4z4 :|]|:  
[V:3] A,3F,G,4 :|]|:  
[V:1]  [K:C] [K:clef=treble][M:2/1]z4c4 | 
[V:2]  [K:C] [K:clef=treble-8][M:2/1]z8 | 
[V:3]  [K:C] [K:clef=bass][M:2/1]A,4A,2A,2 | 
[V:1] A2A2G4- | 
[V:2] z8 | 
[V:3] C6C2 | 
[V:1] G2A2B4 | 
[V:2] z8 | 
[V:3] B,2C2D2B,2 | 
[V:1] c4d4 | 
[V:2] z8 | 
[V:3] A,4G,4 | 
[V:1] A4z4 | 
[V:2] f4d2d2 | 
[V:3] z2F,2G,4 | 
[V:1] z4A4 | 
[V:2] c6d2 | 
[V:3] C,4z4 | 
[V:1] G2c3df2 | 
[V:2] e4f4 | 
[V:3] C4A,2A,2 | 
[V:1] e2dcB2A2 | 
[V:2] g4d2f2- | 
[V:3] G,4G,2A,2 | 
[V:1] d4G4 | 
[V:2] f2g4f2 | 
[V:3] B,4C4 | 
[V:1] z4A4 | 
[V:2] d2f3ef2 | 
[V:3] D4A,2D2 | 
[V:1] G2F2E4 | 
[V:2] c2d2A4 | 
[V:3] E2D4C2 | 
[V:1] D4F4 | 
[V:2] z4d4 | 
[V:3] D2G,2z2D,2 | 
[V:1] G4A2c2 | 
[V:2] c2_B2A4 | 
[V:3] E,2G,4^F,2 | 
[V:1] _B2AGF2G2- | 
[V:2] G4_B4 | 
[V:3] G,4z4 | 
[V:1] G2F2G2D2- | 
[V:2] c4d4 | 
[V:3] A,4G,2F,2 | 
[V:1] D2C2D2A2- | 
[V:2] z2g2f2d2- | 
[V:3] E,4D,4 | 
[V:1] ABc2_B2d2- | 
[V:2] dcA2_B2AG | 
[V:3] F,4G,4 | 
[V:1] dcA2_B4 | 
[V:2] F4z2G2 | 
[V:3] A,4G,2E,2 | 
[V:1] A4z4 | 
[V:2] A3_Bc2d2 | 
[V:3] F,3G,A,2G,2- | 
[V:1] z4z2D2 | 
[V:2] e2e2f3e | 
[V:3] G,2F,E,D,4 | 
[V:1] E3FG2A2 | 
[V:2] c8 | 
[V:3] z8 | 
[V:1] B2B2c3B | 
[V:2] d4c4 | 
[V:3] z2D,2E,2F,2 | 
[V:1] G8- | 
[V:2] e4d4 | 
[V:3] G,3A,_B,2B,2 | 
[V:1] G8- | 
[V:2] e8 | 
[V:3] C3_B,G,4- | 
[V:1] G8 :|]  
[V:2] d8 :|]  
[V:3] G,8 :|]  



